Origami/32x32/mimetypes/text-css.svg

<svg xmlns="http://www.w3.org/2000/svg" width="32" height="32" version="1.1" viewBox="0 0 32 32">
 <path style="opacity:0.2" d="M 7.25,5 C 6.5575,5 6,5.5575 6,6.25 v 22.5 C 6,29.442 6.5575,30 7.25,30 h 17.5 C 25.442,30 26,29.442 26,28.75 V 13 L 19.125,11.875 18,5 Z"/>
 <path fill="#e4e4e4" d="m7.25 4c-0.6925 0-1.25 0.5575-1.25 1.25v22.5c0 0.692 0.5575 1.25 1.25 1.25h17.5c0.692 0 1.25-0.558 1.25-1.25v-15.75l-6.875-1.125-1.125-6.875z"/>
 <path style="opacity:0.2" d="m 18,5 v 6.6667 c 0,0.736 0.597,1.333 1.333,1.333 H 26 l -8,-8 z"/>
 <path fill="#fafafa" d="m18 4v6.6667c0 0.736 0.597 1.333 1.333 1.333h6.667l-8-8z"/>
 <path fill-rule="evenodd" opacity=".5" d="m13.229 14.897a0.59878 0.59965 0 0 0 -0.05657 0.000965 0.59878 0.59965 0 0 0 -0.1584 0.033s-0.37474 0.12386-0.80899 0.35264c-0.43422 0.22878-0.9617 0.54923-1.3012 1.0994-0.37789 0.6123-0.23444 1.2675-0.11692 1.6595 0.11752 0.39201 0.18209 0.56348 0.07354 0.82596-0.05301 0.12817-0.37816 0.40825-0.73356 0.5827-0.35564 0.17448-0.67793 0.26589-0.67793 0.26589a0.59878 0.59965 0 0 0 -0.42807 0.73733 0.59878 0.59965 0 0 0 0.42807 0.71942s0.32254 0.09144 0.67793 0.26589c0.35541 0.17444 0.68057 0.45547 0.73356 0.58364 0.10855 0.26245 0.04398 0.43392-0.07354 0.82596-0.11752 0.39201-0.26097 1.0471 0.11692 1.6595 0.33952 0.55016 0.86698 0.87059 1.3012 1.0994 0.43422 0.22878 0.80899 0.35264 0.80899 0.35264a0.59878 0.59965 0 1 0 0.37715 -1.1371s-0.28494-0.09647-0.62796-0.27721c-0.34304-0.18073-0.71042-0.45926-0.8401-0.66944-0.14672-0.23774-0.09873-0.31969 0.01037-0.68359 0.1091-0.36391 0.30631-0.96848 0.033-1.6293-0.24205-0.58521-0.72528-0.8949-1.1579-1.1183 0.43256-0.22337 0.91579-0.53306 1.1579-1.1183 0.27332-0.66081 0.0761-1.2654-0.033-1.6293-0.1091-0.36391-0.15708-0.44586-0.01037-0.68359 0.1297-0.21017 0.4971-0.48964 0.8401-0.67039 0.34304-0.18073 0.62796-0.27626 0.62796-0.27626a0.59878 0.59965 0 0 0 -0.16123 -1.1711h-0.000965zm5.5394 0a0.59878 0.59965 0 0 0 -0.15935 1.1711s0.28492 0.09553 0.62796 0.27626c0.343 0.18074 0.7104 0.46021 0.8401 0.67039 0.14671 0.23773 0.09873 0.31968-0.01037 0.68359-0.1091 0.36389-0.30632 0.96848-0.033 1.6293 0.24206 0.58519 0.7253 0.89489 1.1579 1.1183-0.43257 0.22335-0.9158 0.53304-1.1579 1.1183-0.27331 0.66081-0.0761 1.2654 0.033 1.6293s0.15709 0.44585 0.01037 0.68359c-0.12968 0.21018-0.49707 0.48871-0.8401 0.66944-0.34302 0.18074-0.62796 0.27721-0.62796 0.27721a0.59878 0.59965 0 1 0 0.37715 1.1371s0.37477-0.12386 0.80899-0.35264c0.43419-0.2288 0.96165-0.54924 1.3012-1.0994 0.37789-0.61236 0.23444-1.2674 0.11692-1.6595-0.11752-0.39204-0.18209-0.56351-0.07354-0.82596 0.05299-0.12817 0.37815-0.4092 0.73356-0.58364 0.35539-0.17444 0.67793-0.26589 0.67793-0.26589a0.59878 0.59965 0 0 0 0.42807 -0.71942 0.59878 0.59965 0 0 0 -0.42807 -0.73733s-0.32229-0.09141-0.67793-0.26589c-0.3554-0.17444-0.68055-0.45453-0.73356-0.5827-0.10855-0.26248-0.04398-0.43395 0.07354-0.82596s0.26098-1.0472-0.11692-1.6595c-0.33947-0.55016-0.86695-0.87061-1.3012-1.0994-0.43424-0.22878-0.80993-0.35264-0.80993-0.35264a0.59878 0.59965 0 0 0 -0.15746 -0.033 0.59878 0.59965 0 0 0 -0.05752 -0.000943 0.59878 0.59965 0 0 0 -0.0019 0zm-2.768 2.414a1.2069 1.2069 0 0 0 -1.207 1.207 1.2069 1.2069 0 0 0 1.207 1.207 1.2069 1.2069 0 0 0 1.207 -1.207 1.2069 1.2069 0 0 0 -1.207 -1.207zm0 3.6206c-0.66656 0-1.2069 0.54034-1.2069 1.2069 0 0.66654 0.54034 1.2069 1.2069 1.2069 0.42662 0 0.60344 1.2069 0.60344 1.2069s0.60344-2.1738 0.60344-2.4138c0-0.66656-0.54034-1.2069-1.2069-1.2069z"/>
 <path fill="#fff" opacity=".2" d="m7.25 4c-0.6925 0-1.25 0.5575-1.25 1.25v1c0-0.6925 0.5575-1.25 1.25-1.25h10.75v-1z"/>
</svg>

<?xml version="1.0" encoding="UTF-8" standalone="no"?>
<svg
   xmlns:dc="http://purl.org/dc/elements/1.1/"
   xmlns:cc="http://creativecommons.org/ns#"
   xmlns:rdf="http://www.w3.org/1999/02/22-rdf-syntax-ns#"
   xmlns:svg="http://www.w3.org/2000/svg"
   xmlns="http://www.w3.org/2000/svg"
   xmlns:sodipodi="http://sodipodi.sourceforge.net/DTD/sodipodi-0.dtd"
   xmlns:inkscape="http://www.inkscape.org/namespaces/inkscape"
   id="svg4358"
   height="32"
   width="32"
   version="1.1"
   viewBox="0 0 32 32"
   inkscape:version="0.91 r13725"
   sodipodi:docname="text-css.svg">
  <defs
     id="defs10" />
  <sodipodi:namedview
     pagecolor="#ffffff"
     bordercolor="#666666"
     borderopacity="1"
     objecttolerance="10"
     gridtolerance="10"
     guidetolerance="10"
     inkscape:pageopacity="0"
     inkscape:pageshadow="2"
     inkscape:window-width="1535"
     inkscape:window-height="876"
     id="namedview8"
     showgrid="false"
     inkscape:zoom="7.375"
     inkscape:cx="-13.966102"
     inkscape:cy="16"
     inkscape:window-x="65"
     inkscape:window-y="24"
     inkscape:window-maximized="1"
     inkscape:current-layer="svg4358" />
  <metadata
     id="metadata4363">
    <rdf:RDF>
      <cc:Work
         rdf:about="">
        <dc:format>image/svg+xml</dc:format>
        <dc:type
           rdf:resource="http://purl.org/dc/dcmitype/StillImage" />
        <dc:title />
      </cc:Work>
    </rdf:RDF>
  </metadata>
  <path
     id="path4750"
     d="M 7.25,4 C 6.5575,4 6,4.5575 6,5.25 l 0,22.5 C 6,28.442 6.5575,29 7.25,29 l 17.5,0 C 25.442,29 26,28.442 26,27.75 L 26,12 19.125,10.875 18,4 Z"
     inkscape:connector-curvature="0"
     style="fill:#cccccc"
     sodipodi:nodetypes="sssssscccs" />
  <path
     id="path4756"
     d="m 18,4 0,6.666667 C 18,11.403072 18.596949,12 19.333333,12 L 26,12 18,4 Z"
     inkscape:connector-curvature="0"
     style="fill:#ebebeb" />
  <path
     id="path4176"
     opacity=".5"
     style="color-rendering:auto;text-decoration-color:#000000;color:#000000;isolation:auto;mix-blend-mode:normal;shape-rendering:auto;solid-color:#000000;block-progression:tb;text-decoration-line:none;image-rendering:auto;white-space:normal;text-indent:0;text-transform:none;text-decoration-style:solid"
     d="m13.229 14.897a0.59878 0.59965 0 0 0 -0.05657 0.000965 0.59878 0.59965 0 0 0 -0.1584 0.033s-0.37474 0.12386-0.80899 0.35264c-0.43422 0.22878-0.9617 0.54923-1.3012 1.0994-0.37789 0.6123-0.23444 1.2675-0.11692 1.6595 0.11752 0.39201 0.18209 0.56348 0.07354 0.82596-0.05301 0.12817-0.37816 0.40825-0.73356 0.5827-0.35564 0.17448-0.67793 0.26589-0.67793 0.26589a0.59878 0.59965 0 0 0 -0.42807 0.73733 0.59878 0.59965 0 0 0 0.42807 0.71942s0.32254 0.09144 0.67793 0.26589c0.35541 0.17444 0.68057 0.45547 0.73356 0.58364 0.10855 0.26245 0.04398 0.43392-0.07354 0.82596-0.11752 0.39201-0.26097 1.0471 0.11692 1.6595 0.33952 0.55016 0.86698 0.87059 1.3012 1.0994 0.43422 0.22878 0.80899 0.35264 0.80899 0.35264a0.59878 0.59965 0 1 0 0.37715 -1.1371s-0.28494-0.09647-0.62796-0.27721c-0.34304-0.18073-0.71042-0.45926-0.8401-0.66944-0.14672-0.23774-0.09873-0.31969 0.01037-0.68359 0.1091-0.36391 0.30631-0.96848 0.033-1.6293-0.24205-0.58521-0.72528-0.8949-1.1579-1.1183 0.43256-0.22337 0.91579-0.53306 1.1579-1.1183 0.27332-0.66081 0.0761-1.2654-0.033-1.6293-0.1091-0.36391-0.15708-0.44586-0.01037-0.68359 0.1297-0.21017 0.4971-0.48964 0.8401-0.67039 0.34304-0.18073 0.62796-0.27626 0.62796-0.27626a0.59878 0.59965 0 0 0 -0.16123 -1.1711h-0.000965zm5.5394 0a0.59878 0.59965 0 0 0 -0.15935 1.1711s0.28492 0.09553 0.62796 0.27626c0.343 0.18074 0.7104 0.46021 0.8401 0.67039 0.14671 0.23773 0.09873 0.31968-0.01037 0.68359-0.1091 0.36389-0.30632 0.96848-0.033 1.6293 0.24206 0.58519 0.7253 0.89489 1.1579 1.1183-0.43257 0.22335-0.9158 0.53304-1.1579 1.1183-0.27331 0.66081-0.0761 1.2654 0.033 1.6293s0.15709 0.44585 0.01037 0.68359c-0.12968 0.21018-0.49707 0.48871-0.8401 0.66944-0.34302 0.18074-0.62796 0.27721-0.62796 0.27721a0.59878 0.59965 0 1 0 0.37715 1.1371s0.37477-0.12386 0.80899-0.35264c0.43419-0.2288 0.96165-0.54924 1.3012-1.0994 0.37789-0.61236 0.23444-1.2674 0.11692-1.6595-0.11752-0.39204-0.18209-0.56351-0.07354-0.82596 0.05299-0.12817 0.37815-0.4092 0.73356-0.58364 0.35539-0.17444 0.67793-0.26589 0.67793-0.26589a0.59878 0.59965 0 0 0 0.42807 -0.71942 0.59878 0.59965 0 0 0 -0.42807 -0.73733s-0.32229-0.09141-0.67793-0.26589c-0.3554-0.17444-0.68055-0.45453-0.73356-0.5827-0.10855-0.26248-0.04398-0.43395 0.07354-0.82596s0.26098-1.0472-0.11692-1.6595c-0.33947-0.55016-0.86695-0.87061-1.3012-1.0994-0.43424-0.22878-0.80993-0.35264-0.80993-0.35264a0.59878 0.59965 0 0 0 -0.15746 -0.033 0.59878 0.59965 0 0 0 -0.05752 -0.000943 0.59878 0.59965 0 0 0 -0.0019 0zm-2.768 2.414a1.2069 1.2069 0 0 0 -1.207 1.207 1.2069 1.2069 0 0 0 1.207 1.207 1.2069 1.2069 0 0 0 1.207 -1.207 1.2069 1.2069 0 0 0 -1.207 -1.207zm0 3.6206c-0.66656 0-1.2069 0.54034-1.2069 1.2069 0 0.66654 0.54034 1.2069 1.2069 1.2069 0.42662 0 0.60344 1.2069 0.60344 1.2069s0.60344-2.1738 0.60344-2.4138c0-0.66656-0.54034-1.2069-1.2069-1.2069z"
     fill-rule="evenodd" />
  <path
     id="path4165"
     d="M 7.25,4 C 6.5575,4 6,4.5575 6,5.25 l 0,1 C 6,5.5575 6.5575,5 7.25,5 L 18,5 18,4 Z"
     inkscape:connector-curvature="0"
     style="opacity:0.2;fill:#ffffff"
     sodipodi:nodetypes="sscsccs" />
</svg>
